!!!COM: Jules Massenet
!!!CNT: Francais
!!!TXO: Francais
!!!OTL: Berceuse
!!!LYR: Gustave Chouquet
!!!OPR: Chants Intimes
!!!ONM: No. 3
!!!ENC: Jacob Pegg
!!!YOR: Romantic French Song 1830-1870 - David Tunley, ed.,
!!!YOR: New York: Garland Publishing, Inc., 1995, Vol. 6
!!!ODT: 1869/
!!NB: Vocal melody and text only encoded.
!!NB: First instance of melodic material only encoded.
**kern	**silbe
*clef G2	*
*k[b-e-a-]	*
*M2/2	*
!!created: 12/22/03 9:09
!!proofed and posted: 1/22/04 9:34
!!edit time: 25 min.
=5	=5
{4g	{En-
4b-	-fant
(4g	ro-
8e-)	|
8f	-se,
=6	=6
4g	Fleur
4b-	e/-
(4g	-clo-
8e-)	|
8f}	-se,}
=7	=7
{8g	{Fleur
8b-	e/-
4ee-	-close
8dd	au
8cc	so-
4b-	-leil
=8	=8
(8a-	de
8g)	|
4f	mes
(8g	vingt
8e-)	|
4f}	ans;}
!! repeat of melody in 5-6
=11	=11
{8g	{Ton
8b-	sou-
4ee-	-rire
8dd	Est
8cc	plus
4b-	frais
=12	=12
(8a-	qu’un
8g)	|
4f	jour
8e-	de
(gq	|
8f)	prin-
[4e-	-temps!
=13	=13
4e-]}	|}
4r	.
2r	.
=14	=14
2r	.
{4b-	{Ton
4b-	sou-
=15	=15
(1b-	-ri-
=16	=16
4ee-)	-re est
4ee-	plus
[2ee-	frais
=17	=17
4.ee-]}	|}
!! phrase from mm. 11-12 repeats
8r	.
8r	.
8r	.
4r	.
=20	=20
{[1b-	{dors...
=21	=21
2b-]}	|}
2r	.
!! first melody repeats in mm. 23-28
=29	=29
{8g	{Ma
8b-	fil-
4dd	-lette,
8ffn	en-
8ee-	-dors~
4dd	~toi
=30	=30
(8cc	sur
8b-)	|
4an	mes
(8g	ge-
b-q	|
8a-)	|
[4g	noux!
=31	=31
4g]}	|}
4r	.
2r	.
=32	=32
{(2dd	{En-
2cc	-dors~
=33	=33
2..b-)}	~toi...}
8r	.
=34	=34
{(2b-	{en-
2a-	-dors~
=35	=35
2..f)}	~toi...}
8r	.
!! first melody repeats again mm. 36-45
=46	=46
{[1b-	{dors!...
=47	=47
2.b-]}	|}
4r	.
=48	=48
{[1ee-	{dors!
=49	=49
1ee-_	|
=50	=50
2ee-_	|
2ee-_	|
=51	=51
1ee-_	|
=52	=52
2ee-]}	|}
2r	.
=53	=53
1r	.
=54	=54
2r	.
2r	.
=55	=55
{[1gn	{dors!
=56	=56
1gn_	|
=57	=57
1gn;]}	|}
*-	*-
